img/place_contacts-item4.svg

<svg width="20" height="20" viewBox="0 0 20 20" fill="none" xmlns="http://www.w3.org/2000/svg">
<path d="M9.85654 18.3653C11.3864 16.0706 12.3173 13.4296 12.5648 10.6826H7.14844C7.39587 13.4294 8.32682 16.0705 9.85669 18.3653H9.85654Z" fill="#FC6733"/>
<path d="M9.85669 1.63574C8.32686 3.93041 7.39589 6.57146 7.14844 9.31842H12.5648C12.3174 6.57166 11.3864 3.93053 9.85654 1.63574H9.85669Z" fill="#FC6733"/>
<path d="M11.2354 1.25057C12.7825 3.67726 13.7061 6.44863 13.9238 9.31838H18.69C18.5339 7.33173 17.7136 5.45564 16.3613 3.99207C15.0091 2.52851 13.2033 1.5628 11.2354 1.25049L11.2354 1.25057Z" fill="#FC6733"/>
<path d="M11.2354 18.7505C13.2034 18.4382 15.0092 17.4725 16.3613 16.0089C17.7135 14.5453 18.5339 12.6692 18.69 10.6826H13.9238C13.7061 13.5524 12.7826 16.3239 11.2354 18.7504L11.2354 18.7505Z" fill="#FC6733"/>
<path d="M8.47756 18.7504C6.93038 16.3237 6.00685 13.5524 5.7891 10.6826H1.02295C1.17902 12.6693 1.9993 14.5454 3.35157 16.0089C4.70385 17.4725 6.50962 18.4382 8.47752 18.7505L8.47756 18.7504Z" fill="#FC6733"/>
<path d="M1.02295 9.3183H5.7891C6.00684 6.44851 6.93034 3.67703 8.47755 1.25049C6.5095 1.56279 4.70377 2.52847 3.35161 3.99207C1.99945 5.45567 1.17907 7.33177 1.02299 9.31838L1.02295 9.3183Z" fill="#FC6733"/>
</svg>

<svg width="20" height="20" viewBox="0 0 20 20" fill="none" xmlns="http://www.w3.org/2000/svg"><path d="M9.857 18.365a16.522 16.522 0 0 0 2.708-7.682H7.148a16.522 16.522 0 0 0 2.709 7.682zm0-16.729a16.522 16.522 0 0 0-2.709 7.682h5.417a16.522 16.522 0 0 0-2.708-7.682zm1.378-.386a17.465 17.465 0 0 1 2.689 8.068h4.766a8.873 8.873 0 0 0-7.455-8.068zm0 17.5a8.871 8.871 0 0 0 7.455-8.067h-4.766a17.463 17.463 0 0 1-2.689 8.067zm-2.757 0a17.465 17.465 0 0 1-2.689-8.067H1.023a8.872 8.872 0 0 0 7.455 8.067zM1.023 9.318h4.766A17.464 17.464 0 0 1 8.478 1.25a8.872 8.872 0 0 0-7.455 8.068z" fill="#FC6733"/></svg>
